X: 798
T: Courtney's Favorite.
C:Carberry.
B:O'Neill's Music of Ireland
N:O'Neill's - 798
Z:Transcribed by Stephen Foy (shf@access.digex.net)
Z:abc 1.6
Z:Ornamets 1, 2, & 6 are trills, 3 is a turn, 4 & 5 are mordents.
R:Jig
M:6/8
K:Em
BEE BEE|BAB/c/ dAF|BEE BEE|~A2 G FED|BEE cEE|dEE cEE|
[1 BAB/c/ dcB|ABG FED:|[2 Bec dcB|~A2 G FGE||DFA ~d2 d|\
BAB/^c/ dAF|
|DFA ~d^cd|~BAG FED|DFA ABd|Bee efg|{g}fed ~e2 d|BAG FED:|


